X:81
T: Reiters Trostlied
N: A0431B
O: Europa, Mitteleuropa, Deutschland
N: Dresdner Cod. M. 53 (um 1550).
R: Romanze, Ballade, Lied, Kriegslied
M: 4/2
L: 1/4
K: G
G2G2G2 | d2d2=f2e2 | d4z2
d2 | d2d2=f2d2 | d6c_B | c2c2_B4 | z2
d2d2d2 | c2c2_BAG2 | =F4z2
F2 | G2A2_B2d2 | c2c2_B4 | z2
_B2d2_e2 | =f2_e2defe | d6
c_B | A2G2A4 | G8 | z2

